app/dist/common/images/centre-testing-gro.svg

<svg height="18" viewBox="0 0 18 18" width="18" xmlns="http://www.w3.org/2000/svg"><path d="m0 0h18v18h-18z" fill="#f0f3fa"/><path d="m13 7h1v5h-1zm-2 1v-1h-3v1h1v4h1v-4z" fill="#202d5a"/><circle cx="13.5" cy="5.5" fill="#aacf44" r=".5"/><path d="m3 8.58c0-.88.77-1.58 1.72-1.58h.56c.95 0 1.72.7 1.72 1.58v.42h-1a1 1 0 0 0 -2 0v1a1 1 0 1 0 2 0h1v.42c0 .88-.77 1.58-1.72 1.58h-.56c-.95 0-1.72-.7-1.72-1.58z" fill="#202d5a"/></svg>

<!-- by TradingView --><svg width="18" height="18" viewBox="0 0 18 18" xmlns="http://www.w3.org/2000/svg"><path fill="#F0F3FA" d="M0 0h18v18H0z"/><path fill="#202D5A" d="M13 7h1v5h-1zM11 8V7H8v1h1v4h1V8h1Z"/><circle cx="13.5" cy="5.5" r=".5" fill="#AACF44"/><path d="M3 8.58C3 7.7 3.77 7 4.72 7h.56C6.23 7 7 7.7 7 8.58V9H6a1 1 0 0 0-2 0v1a1 1 0 1 0 2 0h1v.42C7 11.3 6.23 12 5.28 12h-.56C3.77 12 3 11.3 3 10.42V8.58Z" fill="#202D5A"/></svg>
